X:1
T:Title
%%score { ( 1 2 ) | ( 3 4 ) }
L:1/8
M:4/4
K:Eb
V:1 treble nm="Grand Piano"
V:2 treble 
V:3 bass 
V:4 bass 
V:1
 z4 z2[Q:1/4=100] z G | [EGB]2 [B,EG]2 [EGB]2 [B,EG][B,EF] | [CE]2 [Ec]2 [EB]2 [EG]2 | %3
 [DF]2 [DF][EG] [FA]2 [EG]2 |[M:3/4] [DF]6 |[M:1/4] z G | %6
[M:4/4] [EGB]2 [B,EG]2 [EGB]2 [B,EG][B,EF] | [CE]2 [Ec]2 [EB]2 [B,EG]2 | %8
 [CEF]2 [CEA][CEA] [B,EG]2 [=A,DF]2 | [G,E]6 z2 | [GB]-[EG-B-][EG-B-][EGB] [B,EG]2 [EGB]2 | %11
 [Ac]-[EA-c-][EA-c-][EAc] A2 c2 | [GB][Ac][GB][B,EG] [B,EG]2 [=A,E]2 | [B,DF]6 z2 | %14
 [GB]-[EG-B-][EG-B-][EGB] [B,EG]2 [EGB]2 |[M:9/8] [Ac]-[EA-c-][EA-c-] [EAc] e2- e c2 | %16
[M:4/4] [GB][Ac][GB][G,E] [B,EG]2 [A,DF]2 |[M:3/4] [G,E]6 |] %18
V:2
 z4 z2 E2 | x8 | x8 | x8 |[M:3/4] x6 |[M:1/4] E2 |[M:4/4] x8 | x8 | x8 | x8 | .E2 z2 z4 | %11
 .E2 z2 z4 | x8 | x8 | .E2 z2 z4 |[M:9/8] .E3 z3 z3 |[M:4/4] x8 |[M:3/4] x6 |] %18
V:3
 z4 z2 G,B, | E,2 E,2 E,2 E,E, | A,,2 [C,A,]2 [E,G,]2 [E,B,]2 | %3
 [B,,B,]2 [B,,B,][B,,B,] [B,,B,]2 [B,,B,]2 |[M:3/4] [B,,B,]6 |[M:1/4] z B, | %6
[M:4/4] E,2 E,2 E,2 E,E, | A,,2 [C,A,]2 [E,G,]2 E,2 | A,,2 A,,A,, B,,2 B,,2 | E,6 z2 | %10
 E,E,E,E, E,2 E,2 | A,A,A,A,[K:treble] [A,CE]2 [A,EA]2 | [E,E][E,E][E,E]E, E,2 C,2 | %13
 B,,6[K:treble] (3FG=A | E,E,E,E, E,2 E,2 |[M:9/8] A,A,A, A,[K:treble] [A,CA]2- [A,CA] [A,EA]2 | %16
[M:4/4][K:bass] [E,E][E,E][E,E]E, B,,2 B,,2 |[M:3/4] E,6 |] %18
V:4
 z4 z2 E,2 | x8 | x8 | x8 |[M:3/4] x6 |[M:1/4] G,2 |[M:4/4] x8 | x8 | x8 | x8 | x8 | %11
 x4[K:treble] x4 | x8 | x6[K:treble] x2 | x8 |[M:9/8] x4[K:treble] x5 |[M:4/4][K:bass] x8 | %17
[M:3/4] x6 |] %18

